img/icone-ferro.svg

<svg width="48" height="48" viewBox="0 0 48 48" fill="none" xmlns="http://www.w3.org/2000/svg">
<path d="M24 42L21.1 39.4001C17.7333 36.3667 14.95 33.75 12.75 31.55C10.55 29.35 8.8 27.375 7.5 25.625C6.2 23.875 5.29167 22.2667 4.775 20.8C4.25833 19.3334 4 17.8334 4 16.3C4 13.1667 5.05 10.55 7.15 8.45005C9.25 6.35005 11.8667 5.30005 15 5.30005C16.7333 5.30005 18.3833 5.66672 19.95 6.40005C21.5167 7.13338 22.8667 8.16672 24 9.50005C25.1333 8.16672 26.4833 7.13338 28.05 6.40005C29.6167 5.66672 31.2667 5.30005 33 5.30005C36.1333 5.30005 38.75 6.35005 40.85 8.45005C42.95 10.55 44 13.1667 44 16.3C44 17.8334 43.7417 19.3334 43.225 20.8C42.7083 22.2667 41.8 23.875 40.5 25.625C39.2 27.375 37.45 29.35 35.25 31.55C33.05 33.75 30.2667 36.3667 26.9 39.4001L24 42ZM24 36.6C27.2 33.7334 29.8333 31.275 31.9 29.225C33.9667 27.175 35.6 25.3917 36.8 23.875C38 22.3584 38.8333 21.0084 39.3 19.825C39.7667 18.6417 40 17.4667 40 16.3C40 14.3 39.3333 12.6334 38 11.3C36.6667 9.96672 35 9.30005 33 9.30005C31.4333 9.30005 29.9833 9.74172 28.65 10.625C27.3167 11.5084 26.4 12.6334 25.9 14H22.1C21.6 12.6334 20.6833 11.5084 19.35 10.625C18.0167 9.74172 16.5667 9.30005 15 9.30005C13 9.30005 11.3333 9.96672 10 11.3C8.66667 12.6334 8 14.3 8 16.3C8 17.4667 8.23333 18.6417 8.7 19.825C9.16667 21.0084 10 22.3584 11.2 23.875C12.4 25.3917 14.0333 27.175 16.1 29.225C18.1667 31.275 20.8 33.7334 24 36.6Z" fill="#FF9700"/>
</svg>

<svg xmlns="http://www.w3.org/2000/svg" width="48" height="48" fill="none" viewBox="0 0 48 48"><path fill="#ff9700" d="m24 42-2.9-2.6q-5.05-4.55-8.35-7.85T7.5 25.625 4.775 20.8A13.5 13.5 0 0 1 4 16.3q0-4.7 3.15-7.85T15 5.3q2.6 0 4.95 1.1A11.9 11.9 0 0 1 24 9.5a11.9 11.9 0 0 1 4.05-3.1A11.5 11.5 0 0 1 33 5.3q4.7 0 7.85 3.15T44 16.3a13.5 13.5 0 0 1-.775 4.5Q42.45 23 40.5 25.625t-5.25 5.925-8.35 7.85zm0-5.4q4.8-4.3 7.9-7.375t4.9-5.35q1.8-2.276 2.5-4.05T40 16.3q0-3-2-5t-5-2q-2.35 0-4.35 1.325T25.9 14h-3.8q-.75-2.05-2.75-3.375T15 9.3q-3 0-5 2t-2 5q0 1.75.7 3.525t2.5 4.05 4.9 5.35T24 36.6"/></svg>
